src/lib/packages/icons/src/assets/filled/envelope-star.svg

<svg width="24" height="24" viewBox="0 0 24 24" fill="none" xmlns="http://www.w3.org/2000/svg">
<path d="M14.0801 18.42C13.5601 17.92 13.3701 17.18 13.5901 16.49C13.8101 15.79 14.4001 15.3 15.1201 15.2L16.29 15.03L16.79 14.05C17.11 13.4 17.77 13 18.5 13C18.889 13 19.257 13.113 19.563 13.319C19.729 13.43 20 13.331 20 13.052V7C20 5 19 4 17 4H5C3 4 2 5 2 7V16C2 18 3 19 5 19C5 19 13.4721 19 13.9341 19C14.3331 19 14.2731 18.594 14.1531 18.491C14.1001 18.444 14.0801 18.42 14.0801 18.42ZM11 12.514C10.64 12.514 10.2779 12.402 9.97095 12.179L5.05908 8.606C4.72408 8.363 4.65004 7.893 4.89404 7.558C5.13604 7.225 5.60489 7.14801 5.94189 7.39301L10.854 10.965C10.942 11.028 11.059 11.029 11.147 10.965L16.0591 7.39301C16.3961 7.14801 16.8649 7.224 17.1069 7.558C17.3509 7.893 17.2769 8.362 16.9419 8.606L12.03 12.178C11.722 12.403 11.36 12.514 11 12.514ZM20.6221 18.537C20.5301 18.625 20.488 18.752 20.51 18.876L20.7981 20.522C20.8571 20.856 20.5001 21.11 20.1941 20.953L18.6819 20.175C18.5689 20.117 18.4331 20.117 18.3201 20.175L16.8091 20.952C16.5031 21.11 16.1451 20.854 16.2041 20.52L16.4919 18.876C16.5139 18.752 16.4719 18.625 16.3799 18.537L15.1201 17.335C14.8881 17.114 15.0159 16.728 15.3359 16.683L17.0791 16.435C17.2061 16.417 17.3161 16.339 17.3721 16.226L18.127 14.728C18.28 14.424 18.722 14.424 18.875 14.728L19.6299 16.226C19.6869 16.339 19.7971 16.417 19.9231 16.435L21.666 16.683C21.986 16.728 22.1131 17.114 21.8821 17.335L20.6221 18.537Z" fill="currentColor"/>
</svg>

<svg xmlns="http://www.w3.org/2000/svg" width="24" height="24" fill="none"><path fill="currentColor" d="M14.08 18.42c-.52-.5-.71-1.24-.49-1.93.22-.7.81-1.19 1.53-1.29l1.17-.17.5-.98c.32-.65.98-1.05 1.71-1.05.389 0 .757.113 1.063.319.166.111.437.012.437-.267V7c0-2-1-3-3-3H5C3 4 2 5 2 7v9c0 2 1 3 3 3h8.934c.4 0 .34-.406.22-.509a.773.773 0 0 1-.074-.071ZM11 12.514c-.36 0-.722-.112-1.029-.335L5.059 8.606a.75.75 0 1 1 .883-1.213l4.912 3.572a.25.25 0 0 0 .293 0l4.912-3.572a.75.75 0 1 1 .883 1.213l-4.912 3.572c-.308.225-.67.336-1.03.336Zm9.622 6.023a.378.378 0 0 0-.112.339l.288 1.646c.06.334-.298.588-.604.431l-1.512-.778a.398.398 0 0 0-.362 0l-1.51.777c-.307.158-.665-.098-.606-.432l.288-1.644a.378.378 0 0 0-.112-.339l-1.26-1.202a.38.38 0 0 1 .216-.652l1.743-.248a.386.386 0 0 0 .293-.209l.755-1.498a.42.42 0 0 1 .748 0l.755 1.498a.39.39 0 0 0 .293.209l1.743.248a.38.38 0 0 1 .216.652l-1.26 1.202Z"/></svg>
